!! J.S. Bach "Tempo di Borea" from Partita No. 1, solo violin, BWV 1002.
!! From 'Neue Ausgabe Saemtlicher Werke' Serie VI: Kammermusikwerke,
!! Band 1 ('Werke fuer Violine') Baerenreiter Kassel (Basel) 1958; pp.16-17
!! NOTE: This 'monophonic' work has been recoded here as a four-part work.
!! NOTE: The repeats at the end of bar 20 and at the end of the movement
!!       have been expanded in this encoding.
**kern	**kern	**kern	**kern
*M2/2	*M2/2	*M2/2	*M2/2
4r	4r	4r	4ff#
=1	=1	=1	=1
4B	4f#	4dd	4bb
4r	4r	4r	4ff#
4B	4f#	4dd	4bb
4r	4r	4r	4ff#
=2	=2	=2	=2
1r	4a#	4cc#	4gg
.	2r	2r	8gg
.	.	.	8ff#
.	.	.	4ee
.	4e	4a#	4gg
=3	=3	=3	=3
1r	4d	4b	4ff#
.	4e	4cc#	4ee
.	2f#	2r	4ddT
.	.	.	4cc#
=4	=4	=4	=4
1r	4B	4f#	8ee
.	.	.	8dd
.	2.r	2.r	8cc#
.	.	.	8dd
.	.	.	4b
.	.	.	8dd
.	.	.	8cc#
=5	=5	=5	=5
1r	4r	1r	4dd
.	4B	.	4f#
.	4B	.	4g
.	4r	.	4dd
=6	=6	=6	=6
1r	4A	4g	4cc#
.	2.r	2.r	8cc#
.	.	.	8b
.	.	.	4cc#
.	.	.	8aa
.	.	.	8ee
=7	=7	=7	=7
1r	4r	1r	4cc#
.	4A	.	4e
.	4A	.	4f#
.	4r	.	4cc#
=8	=8	=8	=8
1r	4G	4f#	4b
.	2.r	2.r	8b
.	.	.	8a
.	.	.	4b
.	.	.	8bb
.	.	.	8gg
=9	=9	=9	=9
1r	1r	1r	4ee
.	.	.	8gg
.	.	.	8ee
.	.	.	4cc#
.	.	.	8ee
.	.	.	8cc#
=10	=10	=10	=10
1r	1r	4g	4a
.	.	2.r	8b
.	.	.	8cc#
.	.	.	8dd
.	.	.	8ee
.	.	.	8ff#
.	.	.	8gg
=11	=11	=11	=11
1r	1r	4r	4aa
.	.	4f#	4dd
.	.	4g	4ee
.	.	4a	4cc#
=12	=12	=12	=12
1r	4B	4a	8dd
.	.	.	8cc#
.	2.r	2r	4dd
.	.	.	4bb
.	.	4g#	4dd
=13	=13	=13	=13
1r	4A	4gn	8cc#
.	.	.	8b
.	2r	2r	4cc#
.	.	.	4aa
.	4A	4f#	4ccn
=14	=14	=14	=14
1r	4G	4g	4b
.	2.r	4f#	4dd
.	.	4e	8cc#
.	.	.	8dd
.	.	4d	4ee
=15	=15	=15	=15
1r	1r	4c#	4g
.	.	2.r	8g
.	.	.	8f#
.	.	.	4g
.	.	.	8ee
.	.	.	8f#
=16	=16	=16	=16
1r	1r	4c#	4g
.	.	4r	8ee
.	.	.	8f#
.	.	4B	4g
.	.	4r	8ee
.	.	.	8f#
=17	=17	=17	=17
1r	1r	4A	4g
.	.	2.r	4cc#
.	.	.	[2aa
=18	=18	=18	=18
1r	1r	1r	8aa]
.	.	.	{8ddd
.	.	.	8ccc#
.	.	.	8bb
.	.	.	8aa
.	.	.	8gg
.	.	.	8bb
.	.	.	8aa
=19	=19	=19	=19
1r	2.r	2r	8gg
.	.	.	8ff#
.	.	.	8ee
.	.	.	8dd}
.	.	4a	4a
.	4A	4g	4cc#
=20	=20	=20	=20
2.r	2.d	2.f#	2.dd
4r	4r	4r	4ff#
=21	=21	=21	=21
4B	4f#	4dd	4bb
4r	4r	4r	4ff#
4B	4f#	4dd	4bb
4r	4r	4r	4ff#
=22	=22	=22	=22
1r	4a#	4cc#	4gg
.	2r	2r	8gg
.	.	.	8ff#
.	.	.	4ee
.	4e	4a#	4gg
=23	=23	=23	=23
1r	4d	4b	4ff#
.	4e	4cc#	4ee
.	2f#	2r	4ddT
.	.	.	4cc#
=24	=24	=24	=24
1r	4B	4f#	8ee
.	.	.	8dd
.	2.r	2.r	8cc#
.	.	.	8dd
.	.	.	4b
.	.	.	8dd
.	.	.	8cc#
=25	=25	=25	=25
1r	4r	1r	4dd
.	4B	.	4f#
.	4B	.	4g
.	4r	.	4dd
=26	=26	=26	=26
1r	4A	4g	4cc#
.	2.r	2.r	8cc#
.	.	.	8b
.	.	.	4cc#
.	.	.	8aa
.	.	.	8ee
=27	=27	=27	=27
1r	4r	1r	4cc#
.	4A	.	4e
.	4A	.	4f#
.	4r	.	4cc#
=28	=28	=28	=28
1r	4G	4f#	4b
.	2.r	2.r	8b
.	.	.	8a
.	.	.	4b
.	.	.	8bb
.	.	.	8gg
=29	=29	=29	=29
1r	1r	1r	4ee
.	.	.	8gg
.	.	.	8ee
.	.	.	4cc#
.	.	.	8ee
.	.	.	8cc#
=30	=30	=30	=30
1r	1r	4g	4a
.	.	2.r	8b
.	.	.	8cc#
.	.	.	8dd
.	.	.	8ee
.	.	.	8ff#
.	.	.	8gg
=31	=31	=31	=31
1r	1r	4r	4aa
.	.	4f#	4dd
.	.	4g	4ee
.	.	4a	4cc#
=32	=32	=32	=32
1r	4B	4a	8dd
.	.	.	8cc#
.	2.r	2r	4dd
.	.	.	4bb
.	.	4g#	4dd
=33	=33	=33	=33
1r	4A	4gn	8cc#
.	.	.	8b
.	2r	2r	4cc#
.	.	.	4aa
.	4A	4f#	4ccn
=34	=34	=34	=34
1r	4G	4g	4b
.	2.r	4f#	4dd
.	.	4e	8cc#
.	.	.	8dd
.	.	4d	4ee
=35	=35	=35	=35
1r	1r	4c#	4g
.	.	2.r	8g
.	.	.	8f#
.	.	.	4g
.	.	.	8ee
.	.	.	8f#
=36	=36	=36	=36
1r	1r	4c#	4g
.	.	4r	8ee
.	.	.	8f#
.	.	4B	4g
.	.	4r	8ee
.	.	.	8f#
=37	=37	=37	=37
1r	1r	4A	4g
.	.	2.r	4cc#
.	.	.	[2aa
=38	=38	=38	=38
1r	1r	1r	8aa]
.	.	.	{8ddd
.	.	.	8ccc#
.	.	.	8bb
.	.	.	8aa
.	.	.	8gg
.	.	.	8bb
.	.	.	8aa
=39	=39	=39	=39
1r	2.r	2r	8gg
.	.	.	8ff#
.	.	.	8ee
.	.	.	8dd}
.	.	4a	4a
.	4A	4g	4cc#
=40	=40	=40	=40
2.r	2.d	2.f#	2.dd
4r	4d	4dd	4ff#
=41	=41	=41	=41
1r	4a	4cc#	4ee
.	4r	4dd	4ff#
.	4a	4ee	4gg
.	4r	4dd	4ff#
=42	=42	=42	=42
2.r	4a	4cc#	4ee
.	2r	2r	8ee
.	.	.	8dd
.	.	.	4ee
4A	4f#	4dd	4aa
=43	=43	=43	=43
4A	4e	1r	4cc#
4r	4f#	.	4dd
4A	4g	.	4ee
4r	4f#	.	4dd
=44	=44	=44	=44
4A	4e	1r	4cc#
2.r	8e	.	8cc#
.	8d	.	8b
.	4e	.	4cc#
.	4f#	.	4dd#
=45	=45	=45	=45
4G	4g	4b	4ee
4r	4b	2.r	4gg
4B	4r	.	4r
4r	4a	.	4ff#
=46	=46	=46	=46
4cn	8g	2r	8ee
.	8f#	.	8dd#
2.r	4g	.	4ee
.	2r	4g	4ee
.	.	8ee	8gg
.	.	8dd#	8ff#
=47	=47	=47	=47
1r	4r	4ee	4gg
.	4g	4ee	4bb
.	2b	2r	4ggT
.	.	.	8ff#
.	.	.	8ee
=48	=48	=48	=48
1r	4e	2.r	2.ee
.	4f#	.	.
.	4g	.	.
.	4e	4b	4gg
=49	=49	=49	=49
1r	1r	4a	4cc#
.	.	4r	4gg
.	.	4a	4cc#
.	.	4r	4gg
=50	=50	=50	=50
1r	2d	2a	4gg
.	.	.	8ff#
.	.	.	8ee
.	2r	2r	4ff#
.	.	.	4bb
=51	=51	=51	=51
1r	1r	4e#	4cc#
.	.	4r	4bb
.	.	4f#	4cc#
.	.	4r	4aa
=52	=52	=52	=52
1r	1r	4cc#	8gg#
.	.	.	8ff#
.	.	2.r	8ee#
.	.	.	8dd#
.	.	.	4cc#
.	.	.	8ccc#
.	.	.	8bb
=53	=53	=53	=53
1r	1r	4r	4ccc#
.	.	4b	4een
.	.	4a#	4ee
.	.	4r	4ccc#
=54	=54	=54	=54
1r	1r	4b	4ee
.	.	2.r	8dd
.	.	.	8cc#
.	.	.	4dd
.	.	.	8bb
.	.	.	8aa#
=55	=55	=55	=55
1r	2.r	4r	4bb
.	.	4a	4dd
.	.	4g#	4dd
.	4f#	4dd	4bb
=56	=56	=56	=56
1r	4e#	1r	8cc#
.	.	.	8dd#
.	2.r	.	8ee#
.	.	.	8ff#
.	.	.	8gg#
.	.	.	8aa
.	.	.	8bb
.	.	.	8gg#
=57	=57	=57	=57
1r	4f#	4cc#	8bb
.	.	.	8aa
.	2.r	2.r	8gg#
.	.	.	8ff#
.	.	.	4cc#
.	.	.	4ee#
=58	=58	=58	=58
1r	1r	1r	4ff#
.	.	.	8f#
.	.	.	8g
.	.	.	8f#
.	.	.	8e
.	.	.	8d#
.	.	.	8c#
=59	=59	=59	=59
1r	2r	2r	4B
.	.	.	4aa
.	4B	4f#	4dd#
.	4r	4r	4aa
=60	=60	=60	=60
1r	4e	4b	4aa
.	2.r	2.r	8gg
.	.	.	8ff#
.	.	.	8gg
.	.	.	8e
.	.	.	8f#
.	.	.	8g
=61	=61	=61	=61
1r	2r	2r	4A
.	.	.	4gg
.	4A	4e	4cc#
.	4r	4r	4gg
=62	=62	=62	=62
1r	4d	4a	4gg
.	2.r	2.r	8ff#
.	.	.	8ee
.	.	.	8ff#
.	.	.	8dd
.	.	.	8cc#
.	.	.	8b
=63	=63	=63	=63
1r	1r	4c#	4a#
.	.	4r	4ee
.	.	4B	4gn
.	.	4r	4ee
=64	=64	=64	=64
1r	1r	4A#	{8f#
.	.	.	8cc#
.	.	2.r	8ee}
.	.	.	8dd
.	.	.	8ee
.	.	.	8gg
.	.	.	8ff#
.	.	.	8ee
=65	=65	=65	=65
1r	1r	1r	8dd
.	.	.	8cc#
.	.	.	8b
.	.	.	8a
.	.	.	8g
.	.	.	8a#
.	.	.	8b
.	.	.	8cc#
=66	=66	=66	=66
1r	1r	1r	8dd
.	.	.	8b
.	.	.	8cc#
.	.	.	8a#
.	.	.	8f#
.	.	.	8cc#
.	.	.	8ff#
.	.	.	8gg#
=67	=67	=67	=67
1r	1r	1r	8aa#
.	.	.	8bb
.	.	.	8aa#
.	.	.	8bb
.	.	.	8ccc#
.	.	.	8ddd
.	.	.	8ccc#
.	.	.	8ddd
=68	=68	=68	=68
1r	1r	1r	8eee
.	.	.	8ff#
.	.	.	8a#
.	.	.	8ff#
.	.	.	8eee
.	.	.	8ff#
.	.	.	8a#
.	.	.	8b
=69	=69	=69	=69
1r	1r	1r	8cc#
.	.	.	8dd
.	.	.	8ee
.	.	.	8ff#
.	.	.	8gg#
.	.	.	8aa#
.	.	.	8bb
.	.	.	8ccc#
=70	=70	=70	=70
1r	1r	1r	8ddd
.	.	.	8ee#
.	.	.	8b
.	.	.	8ee#
.	.	.	8ddd
.	.	.	8ee#
.	.	.	8b
.	.	.	8cc#
=71	=71	=71	=71
1r	1r	1r	8dd
.	.	.	8een
.	.	.	8dd
.	.	.	8cc#
.	.	.	8b
.	.	.	8a
.	.	.	8g#
.	.	.	8f#
=72	=72	=72	=72
1r	1r	1r	8e#
.	.	.	8ddd
.	.	.	8ccc#
.	.	.	8bb
.	.	.	8aa#
.	.	.	8ggn
.	.	.	8ff#
.	.	.	8een
=73	=73	=73	=73
1r	1r	1r	{8dd
.	.	.	8cc#}
.	.	.	{8dd
.	.	.	8b}
.	.	.	4f#
.	.	.	4a#
=74	=74	=74	=74
1r	4B	4f#	4b
.	2.r	2.r	8dd
.	.	.	8cc#
.	.	.	4b
.	.	.	8B
.	.	.	8A
=75	=75	=75	=75
1r	1r	1r	4G
.	.	.	8dd
.	.	.	8cc#
.	.	.	8b
.	.	.	8a#
.	.	.	4b
=76	=76	=76	=76
1r	4d	4b	4ff#
.	2.r	2.r	8b
.	.	.	8a#
.	.	.	4b
.	.	.	{8ccn
.	.	.	8b
=77	=77	=77	=77
1r	1r	1r	8an
.	.	.	8g
.	.	.	8f#
.	.	.	8e}
.	.	.	8d#
.	.	.	8ccn
.	.	.	8b
.	.	.	8a
=78	=78	=78	=78
1r	1r	1r	8g
.	.	.	8f#
.	.	.	8e
.	.	.	8f#
.	.	.	8g
.	.	.	8a
.	.	.	8b
.	.	.	8cc#
=79	=79	=79	=79
1r	1r	1r	8dd
.	.	.	8ff#
.	.	.	{8bb
.	.	.	8gg#}
.	.	.	{8ee#
.	.	.	8cc#}
.	.	.	8ddd
.	.	.	8ccc#
=80	=80	=80	=80
1r	1r	1r	8bb
.	.	.	8aa#
.	.	.	8bb
.	.	.	8ccc#
.	.	.	4ff#
.	.	.	8ccc#
.	.	.	8dd
=81	=81	=81	=81
1r	1r	4f#	4ee
.	.	4r	8ccc#
.	.	.	8dd
.	.	4g#	4ee
.	.	4r	8ccc#
.	.	.	8dd
=82	=82	=82	=82
1r	1r	4a#	4ee
.	.	2.r	8gg
.	.	.	8ff#
.	.	.	[2gg
=83	=83	=83	=83
1r	1r	1r	8gg]
.	.	.	{8ff#
.	.	.	8ee
.	.	.	8dd
.	.	.	8cc#
.	.	.	8b
.	.	.	8a#
.	.	.	8cc#}
=84	=84	=84	=84
1r	1r	1r	8e
.	.	.	8g
.	.	.	8f#
.	.	.	8e
.	.	.	8d
.	.	.	8c#
.	.	.	8B
.	.	.	8A#
=85	=85	=85	=85
4B	4f#	4dd	4bb
4r	4r	4r	4ff#
4B	4f#	4dd	4bb
4r	4r	4r	4ff#
=86	=86	=86	=86
1r	4a#	4cc#	4gg
.	2r	2r	8gg
.	.	.	8ff#
.	.	.	4ee
.	4a#	4ee	4gg
=87	=87	=87	=87
1r	4b	4dd	4ff#
.	4e	2.r	4ee
.	4f#	.	4dd
.	4f#	.	8ee
.	.	.	8cc#
=88	=88	=88	=88
2.r	2.B	2.f#	2.b
4r	4d	4dd	4ff#
=89	=89	=89	=89
1r	4a	4cc#	4ee
.	4r	4dd	4ff#
.	4a	4ee	4gg
.	4r	4dd	4ff#
=90	=90	=90	=90
2.r	4a	4cc#	4ee
.	2r	2r	8ee
.	.	.	8dd
.	.	.	4ee
4A	4f#	4dd	4aa
=91	=91	=91	=91
4A	4e	1r	4cc#
4r	4f#	.	4dd
4A	4g	.	4ee
4r	4f#	.	4dd
=92	=92	=92	=92
4A	4e	1r	4cc#
2.r	8e	.	8cc#
.	8d	.	8b
.	4e	.	4cc#
.	4f#	.	4dd#
=93	=93	=93	=93
4G	4g	4b	4ee
4r	4b	2.r	4gg
4B	4r	.	4r
4r	4a	.	4ff#
=94	=94	=94	=94
4cn	8g	2r	8ee
.	8f#	.	8dd#
2.r	4g	.	4ee
.	2r	4g	4ee
.	.	8ee	8gg
.	.	8dd#	8ff#
=95	=95	=95	=95
1r	4r	4ee	4gg
.	4g	4ee	4bb
.	2b	2r	4ggT
.	.	.	8ff#
.	.	.	8ee
=96	=96	=96	=96
1r	4e	2.r	2.ee
.	4f#	.	.
.	4g	.	.
.	4e	4b	4gg
=97	=97	=97	=97
1r	1r	4a	4cc#
.	.	4r	4gg
.	.	4a	4cc#
.	.	4r	4gg
=98	=98	=98	=98
1r	2d	2a	4gg
.	.	.	8ff#
.	.	.	8ee
.	2r	2r	4ff#
.	.	.	4bb
=99	=99	=99	=99
1r	1r	4e#	4cc#
.	.	4r	4bb
.	.	4f#	4cc#
.	.	4r	4aa
=100	=100	=100	=100
1r	1r	4cc#	8gg#
.	.	.	8ff#
.	.	2.r	8ee#
.	.	.	8dd#
.	.	.	4cc#
.	.	.	8ccc#
.	.	.	8bb
=101	=101	=101	=101
1r	1r	4r	4ccc#
.	.	4b	4een
.	.	4a#	4ee
.	.	4r	4ccc#
=102	=102	=102	=102
1r	1r	4b	4ee
.	.	2.r	8dd
.	.	.	8cc#
.	.	.	4dd
.	.	.	8bb
.	.	.	8aa#
=103	=103	=103	=103
1r	2.r	4r	4bb
.	.	4a	4dd
.	.	4g#	4dd
.	4f#	4dd	4bb
=104	=104	=104	=104
1r	4e#	1r	8cc#
.	.	.	8dd#
.	2.r	.	8ee#
.	.	.	8ff#
.	.	.	8gg#
.	.	.	8aa
.	.	.	8bb
.	.	.	8gg#
=105	=105	=105	=105
1r	4f#	4cc#	8bb
.	.	.	8aa
.	2.r	2.r	8gg#
.	.	.	8ff#
.	.	.	4cc#
.	.	.	4ee#
=106	=106	=106	=106
1r	1r	1r	4ff#
.	.	.	8f#
.	.	.	8g
.	.	.	8f#
.	.	.	8e
.	.	.	8d#
.	.	.	8c#
=107	=107	=107	=107
1r	2r	2r	4B
.	.	.	4aa
.	4B	4f#	4dd#
.	4r	4r	4aa
=108	=108	=108	=108
1r	4e	4b	4aa
.	2.r	2.r	8gg
.	.	.	8ff#
.	.	.	8gg
.	.	.	8e
.	.	.	8f#
.	.	.	8g
=109	=109	=109	=109
1r	2r	2r	4A
.	.	.	4gg
.	4A	4e	4cc#
.	4r	4r	4gg
=110	=110	=110	=110
1r	4d	4a	4gg
.	2.r	2.r	8ff#
.	.	.	8ee
.	.	.	8ff#
.	.	.	8dd
.	.	.	8cc#
.	.	.	8b
=111	=111	=111	=111
1r	1r	4c#	4a#
.	.	4r	4ee
.	.	4B	4gn
.	.	4r	4ee
=112	=112	=112	=112
1r	1r	4A#	{8f#
.	.	.	8cc#
.	.	2.r	8ee}
.	.	.	8dd
.	.	.	8ee
.	.	.	8gg
.	.	.	8ff#
.	.	.	8ee
=113	=113	=113	=113
1r	1r	1r	8dd
.	.	.	8cc#
.	.	.	8b
.	.	.	8a
.	.	.	8g
.	.	.	8a#
.	.	.	8b
.	.	.	8cc#
=114	=114	=114	=114
1r	1r	1r	8dd
.	.	.	8b
.	.	.	8cc#
.	.	.	8a#
.	.	.	8f#
.	.	.	8cc#
.	.	.	8ff#
.	.	.	8gg#
=115	=115	=115	=115
1r	1r	1r	8aa#
.	.	.	8bb
.	.	.	8aa#
.	.	.	8bb
.	.	.	8ccc#
.	.	.	8ddd
.	.	.	8ccc#
.	.	.	8ddd
=116	=116	=116	=116
1r	1r	1r	8eee
.	.	.	8ff#
.	.	.	8a#
.	.	.	8ff#
.	.	.	8eee
.	.	.	8ff#
.	.	.	8a#
.	.	.	8b
=117	=117	=117	=117
1r	1r	1r	8cc#
.	.	.	8dd
.	.	.	8ee
.	.	.	8ff#
.	.	.	8gg#
.	.	.	8aa#
.	.	.	8bb
.	.	.	8ccc#
=118	=118	=118	=118
1r	1r	1r	8ddd
.	.	.	8ee#
.	.	.	8b
.	.	.	8ee#
.	.	.	8ddd
.	.	.	8ee#
.	.	.	8b
.	.	.	8cc#
=119	=119	=119	=119
1r	1r	1r	8dd
.	.	.	8een
.	.	.	8dd
.	.	.	8cc#
.	.	.	8b
.	.	.	8a
.	.	.	8g#
.	.	.	8f#
=120	=120	=120	=120
1r	1r	1r	8e#
.	.	.	8ddd
.	.	.	8ccc#
.	.	.	8bb
.	.	.	8aa#
.	.	.	8ggn
.	.	.	8ff#
.	.	.	8een
=121	=121	=121	=121
1r	1r	1r	{8dd
.	.	.	8cc#}
.	.	.	{8dd
.	.	.	8b}
.	.	.	4f#
.	.	.	4a#
=122	=122	=122	=122
1r	4B	4f#	4b
.	2.r	2.r	8dd
.	.	.	8cc#
.	.	.	4b
.	.	.	8B
.	.	.	8A
=123	=123	=123	=123
1r	1r	1r	4G
.	.	.	8dd
.	.	.	8cc#
.	.	.	8b
.	.	.	8a#
.	.	.	4b
=124	=124	=124	=124
1r	4d	4b	4ff#
.	2.r	2.r	8b
.	.	.	8a#
.	.	.	4b
.	.	.	{8ccn
.	.	.	8b
=125	=125	=125	=125
1r	1r	1r	8an
.	.	.	8g
.	.	.	8f#
.	.	.	8e}
.	.	.	8d#
.	.	.	8ccn
.	.	.	8b
.	.	.	8a
=126	=126	=126	=126
1r	1r	1r	8g
.	.	.	8f#
.	.	.	8e
.	.	.	8f#
.	.	.	8g
.	.	.	8a
.	.	.	8b
.	.	.	8cc#
=127	=127	=127	=127
1r	1r	1r	8dd
.	.	.	8ff#
.	.	.	{8bb
.	.	.	8gg#}
.	.	.	{8ee#
.	.	.	8cc#}
.	.	.	8ddd
.	.	.	8ccc#
=128	=128	=128	=128
1r	1r	1r	8bb
.	.	.	8aa#
.	.	.	8bb
.	.	.	8ccc#
.	.	.	4ff#
.	.	.	8ccc#
.	.	.	8dd
=129	=129	=129	=129
1r	1r	4f#	4ee
.	.	4r	8ccc#
.	.	.	8dd
.	.	4g#	4ee
.	.	4r	8ccc#
.	.	.	8dd
=130	=130	=130	=130
1r	1r	4a#	4ee
.	.	2.r	8gg
.	.	.	8ff#
.	.	.	[2gg
=131	=131	=131	=131
1r	1r	1r	8gg]
.	.	.	{8ff#
.	.	.	8ee
.	.	.	8dd
.	.	.	8cc#
.	.	.	8b
.	.	.	8a#
.	.	.	8cc#}
=132	=132	=132	=132
1r	1r	1r	8e
.	.	.	8g
.	.	.	8f#
.	.	.	8e
.	.	.	8d
.	.	.	8c#
.	.	.	8B
.	.	.	8A#
=133	=133	=133	=133
4B	4f#	4dd	4bb
4r	4r	4r	4ff#
4B	4f#	4dd	4bb
4r	4r	4r	4ff#
=134	=134	=134	=134
1r	4a#	4cc#	4gg
.	2r	2r	8gg
.	.	.	8ff#
.	.	.	4ee
.	4a#	4ee	4gg
=135	=135	=135	=135
1r	4b	4dd	4ff#
.	4e	2.r	4ee
.	4f#	.	4dd
.	4f#	.	8ee
.	.	.	8cc#
=136	=136	=136	=136
2.r	2.B	2.f#	2.b
==	==	==	==
*-	*-	*-	*-
